synths/sGBP.svg

<svg width="42" height="42" viewBox="0 0 42 42" fill="none" xmlns="http://www.w3.org/2000/svg">
<g clip-path="url(#clip0_7277_57814)">
<mask id="mask0_7277_57814" style="mask-type:alpha" maskUnits="userSpaceOnUse" x="0" y="0" width="42" height="42">
<circle cx="21" cy="21" r="21" fill="url(#paint0_linear_7277_57814)"/>
</mask>
<g mask="url(#mask0_7277_57814)">
<circle cx="21" cy="21" r="21" fill="#34EDB3"/>
<circle cx="21" cy="21" r="18.2" fill="white"/>
</g>
<circle cx="21" cy="21" r="16.1" fill="#06061B"/>
<circle cx="21" cy="21" r="16.1" fill="#06061B"/>
<path d="M15.3126 26.0996C15.9846 26.0996 16.4886 25.9456 16.8246 25.6376C17.1606 25.3156 17.3286 24.8116 17.3286 24.1256V21.9836H15.3336V19.8206H17.3286V17.9306C17.3286 17.2726 17.4336 16.6776 17.6436 16.1456C17.8536 15.5996 18.1476 15.1376 18.5256 14.7596C18.9036 14.3816 19.3586 14.0876 19.8906 13.8776C20.4226 13.6676 21.0176 13.5626 21.6756 13.5626C22.2636 13.5626 22.8096 13.6536 23.3136 13.8356C23.8316 14.0176 24.2796 14.2836 24.6576 14.6336C25.0356 14.9836 25.3296 15.4036 25.5396 15.8936C25.7636 16.3836 25.8756 16.9296 25.8756 17.5316H23.2506C23.2506 17.0556 23.1176 16.6566 22.8516 16.3346C22.5856 15.9986 22.1936 15.8306 21.6756 15.8306C21.1016 15.8306 20.6746 16.0126 20.3946 16.3766C20.1146 16.7406 19.9746 17.2166 19.9746 17.8046V19.8206H22.9776V21.9836H19.9746V24.1466C19.9746 24.3286 19.9606 24.5176 19.9326 24.7136C19.9046 24.9096 19.8486 25.0986 19.7646 25.2806C19.6946 25.4626 19.5966 25.6236 19.4706 25.7636C19.3446 25.8896 19.1836 25.9736 18.9876 26.0156V26.0576H22.3686C23.0266 26.0576 23.4886 25.9036 23.7546 25.5956C24.0346 25.2876 24.1746 24.8116 24.1746 24.1676H26.6736C26.6736 25.5676 26.3096 26.6246 25.5816 27.3386C24.8536 28.0526 23.7966 28.4096 22.4106 28.4096H15.3126V26.0996Z" fill="white"/>
</g>
<defs>
<linearGradient id="paint0_linear_7277_57814" x1="21" y1="0" x2="21" y2="61.4091" gradientUnits="userSpaceOnUse">
<stop stop-color="#08021E"/>
<stop offset="1" stop-color="#1F0777"/>
</linearGradient>
<clipPath id="clip0_7277_57814">
<rect width="42" height="42" fill="white"/>
</clipPath>
</defs>
</svg>

<svg xmlns="http://www.w3.org/2000/svg" width="42" height="42" fill="none"><g clip-path="url(#a)"><mask id="c" width="42" height="42" x="0" y="0" maskUnits="userSpaceOnUse" style="mask-type:alpha"><circle cx="21" cy="21" r="21" fill="url(#b)"/></mask><g mask="url(#c)"><circle cx="21" cy="21" r="21" fill="#34EDB3"/><circle cx="21" cy="21" r="18.2" fill="#fff"/></g><circle cx="21" cy="21" r="16.1" fill="#06061B"/><circle cx="21" cy="21" r="16.1" fill="#06061B"/><path fill="#fff" d="M15.313 26.1c.672 0 1.176-.154 1.512-.462.336-.322.504-.826.504-1.512v-2.142h-1.995V19.82h1.995v-1.89c0-.658.105-1.253.315-1.785a3.92 3.92 0 0 1 .882-1.386 3.96 3.96 0 0 1 1.365-.882 4.825 4.825 0 0 1 1.785-.315c.588 0 1.134.09 1.638.273.518.182.966.448 1.344.798.378.35.672.77.882 1.26.224.49.336 1.036.336 1.638H23.25c0-.476-.133-.875-.4-1.197-.265-.336-.657-.504-1.175-.504-.574 0-1.001.182-1.281.546-.28.364-.42.84-.42 1.428v2.016h3.003v2.163h-3.003v2.163c0 .182-.014.37-.042.567a2.032 2.032 0 0 1-.168.567c-.07.182-.168.343-.294.483a.945.945 0 0 1-.483.252v.042h3.38c.659 0 1.12-.154 1.387-.462.28-.308.42-.784.42-1.428h2.499c0 1.4-.364 2.457-1.092 3.17-.728.715-1.785 1.072-3.171 1.072h-7.098V26.1Z"/></g><defs><linearGradient id="b" x1="21" x2="21" y1="0" y2="61.409" gradientUnits="userSpaceOnUse"><stop stop-color="#08021E"/><stop offset="1" stop-color="#1F0777"/></linearGradient><clipPath id="a"><path fill="#fff" d="M0 0h42v42H0z"/></clipPath></defs></svg>
